X: 2038
T: the LEA RIG
Q: "Reel."
R: reel
B: Kerr's v.2 p.7 #38
Z: 2016 John Chambers <jc:trillian.mit.edu>
M: C
L: 1/8
K: A
c |\
(AF)EF A2AB | (A/B/c) (BA) BFFB |\
AFEF ABce | faef cAA ::\
f |\
(e/f/g) ae (fe)ac |
B/B/B (BA) BFFB |\
[1 AFEF A2(Aa) | f2(ec) eAA :|\
[2 AFEF ABce | faef cAA |]
